X:441
T:An tSeanchailleach Gallda
T:Old Foreign Hag, The
R:jig
D:Altan: Altan
Z:hn-jig-441
M:6/8
L:1/8
K:Ador
Agf edc | BAG Bcd | ~A3 efg | dBG A2G |
Agf edc | BAG Bcd | ~c3 efg | dBG A2G :|
|: Aaa aga | bga ged | eaa aga | bga g2d |
eaa aga | bga ged | cde gfe | dBG A2G :|

